X:613
T:Shoe the Donkey
M:3/4
L:1/8
K:G
|:DG|"G"B2 B2 DG|B2 B2 DG|B2 c2 B2|"D"A4 DF|A2 A2 DF| \
A2 A2 DF|A2 B2 A2|1 "G"G4 :|2 "G"G3 ABc
|:"G"d2 g2 f2|"D"A3 GAB|c2 e2 d2|"G"B4 BB|"Em"B2 A2 B2| \
"Am"c3 Bcd|1 "D"e2 d2 A2|"G" B3 ABc :|2 "D"e2 d2 F2|"G" G4
K:C
|:Gc|"C"e2 e2 Gc|e2 e2 Gc|e2 f2 e2|"G"d4 GB|d2 d2 GB| \
d2 d2 GB|d2 e2 d2|1 "C" c6 :|2 "C"def
|:"C"g2 c'2 b2|"G"d3 cde|f2 a2 g2|"C"e4 ee|"Am"e2 d2 e2| \
"Dm"f3 efg |1 "G"a2 g2 d2|"C"e3 def :|2 "G"a2 g2 B2|"C"c4
